X:1
T:Walzer Nr. 2
T:Waltzer Nr. 2
T:Dmitri Schostakowitsch
C:Dimitri Schostakovitsch
%%score ( 1 2 ) ( 3 4 ) 5 6
L:1/8
Q:1/4=172
M:3/4
K:Eb
V:1 treble nm="Violine 1" snm="Vl."
V:2 treble 
V:3 treble nm="Violine 2" snm="Vl."
V:4 treble 
V:5 alto nm="Viola" snm="Bra."
V:6 bass nm="Cello" snm="Vc."
V:1
!mf! z6 | z6 | z6 | z6 | G6 | (E4 D2) | C6 | z2 (C2 D2) | (E2 C2 E2) | (G4 A2) | G6 | F6 | F6 | %13
 (D4 C2) | =B,6 | z2 (G,2 =B,2) | (D2 =B,2 D2) | (F2 G2 A2) | ^F6 | G6 | [ce]6 | (d4 c2) | %22
 (B4 A2) | [CF]6 | [Bd]6 | (c4 B2) | [GB]6 | z2 .!1!e2 .f2 | .g2 (gf) (ga) | .f2 (fe) (fg) | %30
 .e2 z2 .g2 | z2 .e2 .f2 | .g2 (gf) (ga) | .f2 (fe) (fg) | .e2 z2 .g2 | z2 .!1!c2 .d2 | %36
 .e2 (ed) (ef) | .d2 (dc) (de) | .c2 z2 z2 | z6 | z6 | z6 | g6 | (e4 d2) | c6 | z2 ((c2 d2)) | %46
 (e2 c2 e2) | (g4 a2) | g6 | f6 | f6 | (d4 c2) | =B6 | z2 (G2 =B2) | (d2 =B2 d2) | (f2 g2 a2) | %56
 ^f6 | g6 | e'6 | (d'4 c'2) | (b4 a2) | f6 | d'6 | (c'4 b2) | b6 | z2 .e2 .f2 | .g2 (gf) (ga) | %67
 .f2 (fe) (fg) | .e2 z2 .g2 | z2 .e2 .f2 | .g2 (gf) (ga) | .f2 (fe) (fg) | .e2 z2 .g2 | %73
 z2 .c2 .d2 | .e2 (ed) (ef) | .d2 (dc) (de) | .c2 z2 z2 | z2 z2!f! b2 | e'6 | e'6 | (e'2 d'2 c'2) | %81
 (b2 g2 b2) | d'6 | d'6 | (c'2 b2 g2) | (e2 f2 g2) | c'6 | b6 | (b2 a2 g2) | (f2 e2 f2) | (g4 b2) | %91
 (f4 b2) | (g4 b2) |"_rit." (e'4 f'2) | g'6 | g'6 | (g'2 f'2 e'2) | (d'2 b2 d'2) | f'6 | f'6 | %100
 (f'2 e'2 d'2) | (c'2 g2 b2) | e'6 | e'6 | e'6 | (f'2 e'2 f'2) | (g'4 e'2) | (b2 c'2 d'2) | %108
 (e'2 f'2 e'2) | (_d'2 c'2 =b2) | c'4 e2 | (e2 d2 e2) | c'4 e2 | (e2 _d'2 c'2) | (c'4 b2) | %115
 (=a4 b2) | (f'4 e'2) | (_d'2 c'2 =b2) | c'4 e2 | (e2 d2 e2) | c'4 e2 | (e2 f2 g2) | (a4 b2) | %123
 (c'4 c'2) | (d'2 c'2 d'2) | (e'4 _d'2) | c'4 e2 | (e2 d2 e2) | c'4 e2 | (e2 _d'2 c'2) | (c'4 b2) | %131
 (=a4 b2) | (f'4 e'2) | (_d'2 c'2 =b2) | c'4 e2 | (e2 d2 e2) | c'4 e2 | (e2 f2 g2) | (a4 b2) | %139
 (c'4 c'2) | (d'2 c'2 d'2) | e'6 |"_rit." g'6 | z2!mf! [EG]2 [EG]2 | z2 [EG]2 [EG]2 | %145
 z2!>(! [EG]2 [EG]2!>)! | z2 [EG]2 [EG]2 |"_pizz." z2 [EG]2 [EG]2 | z2 [EG]2 [EG]2 | %149
 z2 [EG]2 [EG]2 | z2 [EG]2 [EG]2 | z2 [EG]2 [EG]2 | z2 [EG]2 [EG]2 | z2 [FA]2 [FA]2 | %154
 z2 [FA]2 [FA]2 | z2 [FA]2 [FA]2 | z2 [FA]2 [FA]2 | z2 [=B,G]2 [B,G]2 | z2 [=B,G]2 [B,G]2 | %159
 z2 [=B,G]2 [B,G]2 | z2 [=B,G]2 [B,G]2 | z2 [EG]2 [EG]2 | z2 [EG]2 [EG]2 |"^arco" e6 | (d4 c2) | %165
 (B4 A2) | F4 z2 | d6 | (c4 B2) | B6 | z2 .e2 .f2 | .g2 .g2 .g2 | .f2 .f2 .f2 | .e2 z2 .g2 | %174
 z2 .e2 .f2 | .g2 .g2 .g2 | .f2 .f2 .f2 | .e2 z2 .g2 | z2 .c'2 .d'2 | .e'2 .e'2 .e'2 | %180
 .d'2 .d'2 .d'2 | .c'2 .G2 .G2 |"_rit." z2 [=Bg]4 |!f!"^sauber!!!" g'6 | (e'4 d'2) | c'6 | %186
 z2 (c'2 d'2) | (e'2 c'2 e'2) | (g'4 a'2) | g'6 | f'6 | f'6 | (d'4 c'2) | =b6 | z2 (g2 =b2) | %195
 (d'2 =b2 d'2) | (f'2 g'2 a'2) | ^f'6 | g'4 z2 | e'6 | (d'4 c'2) | (b4 a2) | f4 z2 | d'6 | %204
 (c'4 b2) | b6 | z2!p! .e2 .f2 | .g2 (gf) (ga) | .f2 (fe) (fg) | .e2 z2 .g2 | z2 .e2 .f2 | %211
 .g2 (gf) (ga) | .f2 (fe) (fg) | .e2 z2 .g2 | z2 .c'2 .d'2 | .e'2 (e'd') (e'f') | %216
 .d'2 (d'c') (d'e') | .c'2 z2!ff! [G,D=Bg]2 | [Gec']2 z2 z2 |] %219
V:2
 x6 | x6 | x6 | x6 | x6 | x6 | x6 | x6 | x6 | x6 | x6 | x6 | x6 | x6 | x6 | x6 | x6 | x6 | x6 | %19
 x6 | x6 | E6 | F6 | x6 | x6 | D6 | x6 | x6 | x6 | x6 | x6 | x6 | x6 | x6 | x6 | x6 | x6 | x6 | %38
 x6 | x6 | x6 | x6 | x6 | x6 | x6 | x6 | x6 | x6 | x6 | x6 | x6 | x6 | x6 | x6 | x6 | x6 | x6 | %57
 x6 | x6 | x6 | x6 | x6 | x6 | x6 | x6 | x6 | x6 | x6 | x6 | x6 | x6 | x6 | x6 | x6 | x6 | x6 | %76
 x6 | x6 | x6 | x6 | x6 | x6 | x6 | x6 | x6 | x6 | x6 | x6 | x6 | x6 | x6 | x6 | x6 | x6 | x6 | %95
 x6 | x6 | x6 | x6 | x6 | x6 | x6 | x6 | x6 | x6 | x6 | x6 | x6 | x6 | x6 | x6 | x6 | x6 | x6 | %114
 x6 | x6 | x6 | x6 | x6 | x6 | x6 | x6 | x6 | x6 | x6 | x6 | x6 | x6 | x6 | x6 | x6 | x6 | x6 | %133
 x6 | x6 | x6 | x6 | x6 | x6 | x6 | x6 | x6 | x6 | x6 | x6 | x6 | x6 | x6 | x6 | x6 | x6 | x6 | %152
 x6 | x6 | x6 | x6 | x6 | x6 | x6 | x6 | x6 | x6 | x6 | x6 | x6 | x6 | x6 | x6 | x6 | x6 | x6 | %171
 x6 | x6 | x6 | x6 | x6 | x6 | x6 | x6 | x6 | x6 | x6 | x6 | x6 | x6 | x6 | x6 | x6 | x6 | x6 | %190
 x6 | x6 | x6 | x6 | x6 | x6 | x6 | x6 | x6 | x6 | x6 | x6 | x6 | x6 | x6 | x6 | x6 | x6 | x6 | %209
 x6 | x6 | x6 | x6 | x6 | x6 | x6 | x6 | x6 | x6 |] %219
V:3
!mf! z2 G2 G2 | z2 G2 G2 | z2 G2 G2 |!>(! z2 G2 G2!>)! | z2 E2 E2 | z2 E2 E2 | z2 E2 E2 | %7
 z2 E2 E2 | z2 E2 E2 | z2 E2 E2 | z2 F2 F2 | z2 F2 F2 | z2 F2 F2 | z2 F2 F2 | z2 F2 F2 | z2 F2 F2 | %16
 z2 F2 F2 | z2 F2 F2 | z2 E2 E2 | z2 E2 E2 | z2 E2 E2 | z2 E2 E2 | z2 F2 F2 | z2 F2 F2 | z2 D2 D2 | %25
 z2 E2 D2 | z2 E2 E2 | z2 .e2 .f2 | .g2 .g2 .g2 | .f2 .f2 .f2 | .e2 z2 .g2 | z2 .e2 .f2 | %32
 .g2 .g2 .g2 | .f2 .f2 .f2 | .e2 z2 .g2 | z2 .c'2 .d'2 | .e'2 .e'2 .e'2 | .d'2 .d'2 .d'2 | %38
 .c'2!<(! [Gc]2 [Gc]2!<)! | z2 [Gc]2 [Gc]2 | z2 [Gc]2 [Gc]2 |!>(! z2 [Gc]2 [Gc]2!>)! | %42
 z2 [Gc]2 [Gc]2 | z2 [Gc]2 [Gc]2 | z2 [Gc]2 [Gc]2 | z2 [Gc]2 [Gc]2 | z2 [Gc]2 [Gc]2 | %47
 z2 [Gc]2 [Gc]2 | z2 [cf]2 [cf]2 | z2 [cf]2 [cf]2 | z2 [cf]2 [cf]2 | z2 [cf]2 [cf]2 | %52
 z2 [=Bf]2 [Bf]2 | z2 [=Bf]2 [Bf]2 | z2 [=Bf]2 [Bf]2 | z2 [=Bf]2 [Bf]2 | z2 [Gc]2 [Gc]2 | %57
 z2 [Gc]2 [Gc]2 | z2 [Gc]2 [Gc]2 | z2 [Gc]2 [Gc]2 | z2 [Ac]2 [Ac]2 | z2 [Ac]2 [Ac]2 | %62
 z2 [Bf]2 [Bf]2 | z2 [Bf]2 [Bf]2 | z2 .[GB]2 .[GB]2 | z2!p! .e2 .f2 | .g2 .g2 .g2 | .f2 .f2 .f2 | %68
 .e2 z2 .g2 | z2 .e2 .f2 | .g2 .g2 .g2 | .f2 .f2 .f2 | .e2 z2 .g2 | z2 .c'2 .d'2 | .e'2 .e'2 .e'2 | %75
 .d'2 .d'2 .d'2 | .c'2 z2 z2 | z2 z2!f! B2 | g6 | g6 | (.g2 .b2 a2) | (.g2 .e2 g2) | b6 | b6 | %84
 (a2 g2 e2) | (c2 d2 e2) | a6 | g6 | (g2 f2 =e2) | (f2 e2 f2) | (e4 g2) | (d4 a2) | (e4 g2) | %93
"_rit." (G4 B2) | e6 | e6 | (e2 e2 c2) | (B2 G2 B2) | d6 | d6 | (d2 c2 B2) | (A2 E2 G2) | G6 | G6 | %104
 A6 | (A2 G2 A2) | (B4 G2) | (D2 E2 F2) | (G2 F2 E2) | (_D2 C2 =B,2) | a4 c2 | (c2 =B2 c2) | %112
 a4 c2 | (c2 a2 a2) | (g4 g2) | (g4 g2) | (b4 _d'2) | (g4 f2) | a4 c2 | (c2 =B2 c2) | a4 c2 | %121
 (c2 _d2 e2) | (f4 g2) | (a4 a2) | (b2 a2 b2) | (g4 g2) | c=Bc AED | ECA DEA | c=Bc fec | %129
 AGA _dcA | EDE =ABG | G=AB _dfb | FAG _dfe | _ddcc=BB | c=Bc AED | ECA DEA | c=Bc fec | AGA _dcA | %138
 AEF _dF=E | F=EF cFc | DFA BdB | efe def |"_rit." [=Bg]6 | z2!mf! [CE]2 [CE]2 | z2 [CE]2 [CE]2 | %145
!>(! z2 [CE]2 [CE]2!>)! | z2 [CE]2 [CE]2 |"_pizz." z2 [CE]2 [CE]2 | z2 [CE]2 [CE]2 | %149
 z2 [CE]2 [CE]2 | z2 [CE]2 [CE]2 | z2 [CE]2 [CE]2 | z2 [CE]2 [CE]2 | z2 [CF]2 [CF]2 | %154
 z2 [CF]2 [CF]2 | z2 [CF]2 [CF]2 | z2 [CF]2 [CF]2 | z2 [G,F]2 [G,F]2 | z2 [G,F]2 [G,F]2 | %159
 z2 [G,F]2 [G,F]2 | z2 G,2 G,2 | z2 [CE]2 [CE]2 | z2 [CE]2 [CE]2 |"^arco" c6 | (G4 G2) | F6 | C6 | %167
 [FA]6 | ([EA]4 [DA]2) | [EG]6 | z2 .c2 .d2 | .e2 .e2 .e2 | .d2 .d2 .d2 | .c2 z2 .e2 | z2 .c2 .d2 | %175
 .e2 .e2 .e2 | .d2 .d2 .d2 | .c2 z2 .e2 | z2 .e2 .f2 | .g2 .g2 .g2 | .f2 .f2 .f2 | .e2 .E2 .E2 | %182
"_rit." z2 E2 D2 |!f! g6 | (e4 d2) | c6 | z2 (c2 d2) | (e2 c2 e2) | (g4 a2) | g6 | f6 | f6 | %192
 (d4 c2) | =B6 | z2 (G2 =B2) | (d2 =B2 d2) | (f2 g2 a2) | _g6 | g4 z2 | c'6 | (g4 e2) | (f4 c2) | %202
 d4 z2 | a6 | ([ca]4 [Ba]2) | g6 | z2!p! .e2 .f2 | .g2 .g2 .g2 | .f2 .f2 .f2 | .e2 z2 .g2 | %210
 z2 .e2 .f2 | .g2 .g2 .g2 | .f2 .f2 .f2 | .e2 z2 .g2 | z2 .c'2 .d'2 | .e'2 .e'2 .e'2 | %216
 .d'2 .d'2 .d'2 | .c'2 z2!ff! [=B,Gd]2 | [G,Ecg]2 z2 z2 |] %219
V:4
 x6 | x6 | x6 | x6 | x6 | x6 | x6 | x6 | x6 | x6 | x6 | x6 | x6 | x6 | x6 | x6 | x6 | x6 | x6 | %19
 x6 | x6 | x6 | x6 | x6 | x6 | x6 | x6 | x6 | x6 | x6 | x6 | x6 | x6 | x6 | x6 | x6 | x6 | x6 | %38
 x6 | x6 | x6 | x6 | x6 | x6 | x6 | x6 | x6 | x6 | x6 | x6 | x6 | x6 | x6 | x6 | x6 | x6 | x6 | %57
 x6 | x6 | x6 | x6 | x6 | x6 | x6 | x6 | x6 | x6 | x6 | x6 | x6 | x6 | x6 | x6 | x6 | x6 | x6 | %76
 x6 | x6 | x6 | x6 | x6 | x6 | x6 | x6 | x6 | x6 | x6 | x6 | x6 | x6 | x6 | x6 | x6 | x6 | x6 | %95
 x6 | x6 | x6 | x6 | x6 | x6 | x6 | x6 | x6 | x6 | x6 | x6 | x6 | x6 | x6 | x6 | x6 | x6 | x6 | %114
 x6 | x6 | x6 | x6 | x6 | x6 | x6 | x6 | x6 | x6 | x6 | x6 | x6 | x6 | x6 | x6 | x6 | x6 | x6 | %133
 x6 | x6 | x6 | x6 | x6 | x6 | x6 | x6 | x6 | x6 | x6 | x6 | x6 | x6 | x6 | x6 | x6 | x6 | x6 | %152
 x6 | x6 | x6 | x6 | x6 | x6 | x6 | x6 | x6 | x6 | x6 | x6 | x6 | (D4 C2) | x6 | x6 | x6 | x6 | %170
 x6 | x6 | x6 | x6 | x6 | x6 | x6 | x6 | x6 | x6 | x6 | x6 | z2 =B,4 | x6 | x6 | x6 | x6 | x6 | %188
 x6 | x6 | x6 | x6 | x6 | x6 | x6 | x6 | x6 | x6 | x6 | x6 | x6 | x6 | x6 | x6 | x6 | B6 | z6 | %207
 x6 | x6 | x6 | x6 | x6 | x6 | x6 | x6 | x6 | x6 | x6 | x6 |] %219
V:5
!mf! z2 E2 E2 | z2 E2 E2 | z2 E2 E2 |!>(! z2 E2 E2!>)! | z2 C2 C2 | z2 C2 C2 | z2 C2 C2 | %7
 z2 C2 C2 | z2 C2 C2 | z2 C2 C2 | z2 C2 C2 | z2 C2 C2 | z2 C2 C2 | z2 C2 C2 | z2 =B,2 B,2 | %15
 z2 =B,2 B,2 | z2 =B,2 B,2 | z2 =B,2 B,2 | z2 C2 C2 | z2 C2 C2 | z2 C2 C2 | z2 C2 C2 | z2 C2 C2 | %23
 z2 C2 C2 | z2 B,2 B,2 | z2 B,2 B,2 | z2 B,2 B,2 | z2 .C2 .D2 | .E2 .E2 .E2 | .D2 .D2 .D2 | %30
 .C2 z2 .E2 | z2 .C2 .D2 | .E2 .E2 .E2 | .D2 .D2 .D2 | .C2 z2 .E2 | z2 .E2 .F2 | .G2 .G2 .G2 | %37
 .F2 .F2 .F2 |!<(! .E2 [CE]2 [CE]2!<)! | z2 [CE]2 [CE]2 | z2 [CE]2 [CE]2 |!>(! z2 [CE]2 [CE]2!>)! | %42
 z2 [CE]2 [CE]2 | z2 [CE]2 [CE]2 | z2 [CE]2 [CE]2 | z2 [CE]2 [CE]2 | z2 [CE]2 [CE]2 | %47
 z2 [CE]2 [CE]2 | z2 [A,D]2 [A,D]2 | z2 [A,D]2 [A,D]2 | z2 [A,D]2 [A,D]2 | z2 [A,D]2 [A,D]2 | %52
 z2 [G,D]2 [G,D]2 | z2 [G,D]2 [G,D]2 | z2 [G,D]2 [G,D]2 | z2 [G,D]2 [G,D]2 | z2 [CE]2 [CE]2 | %57
 z2 [CE]2 [CE]2 | z2 [CE]2 [CE]2 | z2 [CE]2 [CE]2 | z2 [A,F]2 [A,F]2 | z2 [A,F]2 [A,F]2 | %62
 z2 [A,F]2 [A,F]2 | z2 [A,F]2 [A,F]2 | z2 .[EB]2 .[EB]2 | z2!p! .C2 .D2 | .E2 .E2 .E2 | %67
 .D2 .D2 .D2 | .C2 z2 .E2 | z2 .C2 .D2 | .E2 .E2 .E2 | .D2 .D2 .D2 | .C2 z2 .E2 | z2 .E2 .F2 | %74
 .G2 .G2 .G2 | .F2 .F2 .F2 | .E2 z2 z2 | z6 |!f! [Ee]2 [B,E]2 [B,E]2 | z2 [B,E]2 [B,E]2 | %80
 z2 [B,E]2 [B,E]2 | z2 [B,E]2 [B,E]2 | z2 [B,D]2 [B,D]2 | z2 [B,D]2 [B,D]2 | z2 [B,E]2 [B,E]2 | %85
 z2 [B,E]2 [B,E]2 | z2 [B,=E]2 [B,E]2 | z2 [B,=E]2 [B,E]2 | z2 [CF]2 [C=E]2 | z2 [CF]2 [CF]2 | %90
 z2 [B,E]2 [B,E]2 | z2 [B,A]2 [B,A]2 | z2 [B,G]2 [B,G]2 | z2"_rit." [B,G]2 [B,F]2 | %94
 z2 [B,E]2 [B,E]2 | z2 [B,E]2 [B,E]2 | z2 [B,E]2 [B,E]2 | z2 [B,E]2 [B,E]2 | z2 [DA]2 [DA]2 | %99
 z2 [DA]2 [DA]2 | z2 [B,G]2 [B,G]2 | z2 [B,G]2 [B,G]2 | z2 [B,G]2 [B,G]2 | z2 [B,G]2 [B,G]2 | %104
 z2 [CA]2 [CA]2 | z2 [A,F]2 [A,F]2 | z2 [B,G]2 [B,G]2 | z2 [DB]2 [DB]2 | [EB]2 z2 z2 | [_DG]6 | %110
 z2 [CE]2 [CE]2 | z2 [CE]2 [CE]2 | z2 [CE]2 [CE]2 | z2 [CE]2 [CE]2 | z2 [_DE]2 [DE]2 | %115
 z2 [_DE]2 [DE]2 | z2 [_DE]2 [DE]2 | z2 [_DE]2 [DE]2 | z2 [CE]2 [CE]2 | z2 [CE]2 [CE]2 | %120
 z2 [CE]2 [CE]2 | z2 [CE]2 [CE]2 | z2 [_DF]2 [DF]2 | z2 [CE]2 [CE]2 | z2 [B,D]2 [B,D]2 | %125
 [B,G]2 z2 z2 | [EA]2 [CE]2 [CE]2 | z2 [CE]2 [CE]2 | z2 [CE]2 [CE]2 | z2 [CE]2 [CE]2 | %130
 z2 [_DE]2 [DE]2 | z2 [_DE]2 [DE]2 | z2 [_DE]2 [DE]2 | z2 [CE]2 [CE]2 | z2 [CE]2 [CE]2 | %135
 z2 [CE]2 [CE]2 | z2 [CE]2 [CE]2 | z2 [B,E]2 [B,E]2 | z2 [FB]2 [FB]2 | z2 [FA]2 [FA]2 | %140
 z2 [AB]2 [AB]2 | z2 [Gc]2 [Gc]2 |"_rit." [G=B]4 [FB]2 |!mf! C2 z2 z2 | G,2 z2 z2 | %145
!>(! C2 z2 z2!>)! | G,2 z2 z2 |"_pizz." C2 z2 z2 | G,2 z2 z2 | C2 z2 z2 | G,2 z2 z2 | C2 z2 z2 | %152
 G,2 z2 z2 | D2 z2 z2 | G,2 z2 z2 | D2 z2 z2 | G,2 z2 z2 | D2 z2 z2 | G,2 z2 z2 | D2 z2 z2 | %160
 G,2 z2 z2 | C2 z2 z2 | G,2 z2 z2 | z2"^arco" [CE]2 [CE]2 | z2 [CE]2 [CE]2 | z2 [A,F]2 [A,F]2 | %166
 z2 [A,F]2 [A,F]2 | z2 [A,D]2 [A,D]2 | z2 [A,D]2 [A,D]2 | z2 [G,E]2 [G,E]2 | A,2 .C2 .D2 | %171
 .E2 (ED) (EF) | .D2 (DC) (DE) | .C2 z2 .E2 | z2 .C2 .D2 | .E2 (ED) (EF) | .D2 (DC) (DE) | %177
 .C2 z2 .E2 | z2 .E2 .F2 | .G2 (GF) (GA) | .F2 (FE) (FG) | .E2 .C2 .C2 |"_rit." z2 [=B,G]4 | %183
 z2!f! [CE]2 [CE]2 | z2 [CE]2 [CE]2 | z2 [CE]2 [CE]2 | z2 [CE]2 [CE]2 | z2 [CE]2 [CE]2 | %188
 z2 [CE]2 [CE]2 | z2 [A,D]2 [A,D]2 | z2 [A,D]2 [A,D]2 | z2 [A,D]2 [A,D]2 | z2 [A,D]2 [A,D]2 | %193
 z2 [G,D]2 [G,D]2 | z2 [G,D]2 [G,D]2 | z2 [G,D]2 [G,D]2 | z2 [G,D]2 [G,D]2 | z2 [CE]2 [CE]2 | %198
 z2 [CE]2 [CE]2 | z2 [CE]2 [CE]2 | z2 [CE]2 [CE]2 | z2 [A,F]2 [A,F]2 | z2 [A,F]2 [A,F]2 | %203
 z2 [A,F]2 [A,F]2 | z2 [A,F]2 [A,F]2 | z2 .[EB]2 .[EB]2 | z2!p! .C2 .D2 | .E2 .E2 .E2 | %208
 .D2 .D2 .D2 | .C2 z2 .E2 | z2 .C2 .D2 | .E2 .E2 .E2 | .D2 .D2 .D2 | .C2 z2 .E2 | z2 .E2 .F2 | %215
 .G2 .G2 .G2 | .F2 .F2 .F2 | .E2 z2!ff! [D,=B,]2 | [E,C]2 z2 z2 |] %219
V:6
!mf! C,6 | G,,6 | C,6 |!>(! G,,6!>)! | C,2 z2 z2 | G,,2 z2 z2 | C,2 z2 z2 | G,,2 z2 z2 | %8
 C,2 z2 z2 | G,,2 z2 z2 | D,2 z2 z2 | G,,2 z2 z2 | D,2 z2 z2 | G,,2 z2 z2 | D,2 z2 z2 | %15
 G,,2 z2 z2 | D,2 z2 z2 | G,,2 z2 z2 | C,2 z2 z2 | G,,2 z2 z2 | C,2 z2 z2 | G,,2 z2 z2 | %22
 F,2 z2 z2 | F,2 z2 z2 | B,,2 z2 z2 | B,,2 z2 z2 | E,2 z2 z2 | .A,,2 .E,,2 .F,,2 | .G,,2 z2 z2 | %29
 .A,,2 z2 z2 | .G,,2 .G,,2 .G,,2 | .A,,2 .E,,2 .F,,2 | .G,,2 z2 z2 | .A,,2 z2 z2 | %34
 .G,,2 .G,,2 .G,,2 | .A,,2 .C,2 .D,2 | .C,2 z2 z2 | .G,,2 z2 z2 |!<(! C,2 z2 z2!<)! | G,,2 z2 z2 | %40
 C,2 z2 z2 |!>(! G,,2 z2 z2!>)! | C,2 z2 z2 | G,,2 z2 z2 | C,2 z2 z2 | G,,2 z2 z2 | C,2 z2 z2 | %47
 G,,2 z2 z2 | D,2 z2 z2 | G,,2 z2 z2 | D,2 z2 z2 | G,,2 z2 z2 | D,2 z2 z2 | G,,2 z2 z2 | %54
 D,2 z2 z2 | G,,2 z2 z2 | C,2 z2 z2 | G,,2 z2 z2 | C,2 z2 z2 | G,,2 z2 z2 | F,2 z2 z2 | F,2 z2 z2 | %62
 B,,2 z2 z2 | B,,2 z2 z2 | E,2 z2 z2 | .A,,2 .E,,2 .F,,2 | .G,,2 z2 z2 | .A,,2 z2 z2 | %68
 .G,,2 .G,,2 .G,,2 | .A,,2 .E,,2 .F,,2 | .G,,2 z2 z2 | .A,,2 z2 z2 | .G,,2 .G,,2 .G,,2 | %73
 .A,,2 .C,2 .D,2 | .C,2 z2 z2 | .G,,2 z2 z2 |"_cresc." C,2 G,2 E,2 | C,2 z2!f! B,,2 | E,6 | B,,6 | %80
 E,6 | B,,6 | F,2 z2 z2 | B,,2 z2 z2 | E,2 z2 z2 | B,,2 z2 z2 | C,2 z2 z2 | C,2 z2 z2 | %88
 F,,2 z2 z2 | A,,2 z2 z2 | E,2 z2 z2 | B,,2 z2 z2 | E,2 z2 z2 |"_rit." B,,2 z2 z2 | E,2 z2 z2 | %95
 B,,2 z2 z2 | E,2 z2 z2 | B,,2 z2 z2 | F,6 | B,,6 | E,6 | B,,6 | E,6 | _D,6 | C,6 | =B,,6 | B,,6 | %107
 B,,6 | E,6 | E,6 | A,,2 z2 z2 | E,2 z2 z2 | A,,2 z2 z2 | E,2 z2 z2 | B,,2 z2 z2 | E,2 z2 z2 | %116
 B,,2 z2 z2 | E,2 z2 z2 | A,,2 z2 z2 | E,2 z2 z2 | A,,2 z2 z2 | E,2 z2 z2 | _D,2 z2 z2 | %123
 C,2 z2 z2 | B,,2 z2 z2 | E,2 z2 z2 | A,,2 z2 z2 | E,2 z2 z2 | A,,2 z2 z2 | E,2 z2 z2 | %130
 B,,2 z2 z2 | E,2 z2 z2 | B,,2 z2 z2 | E,2 z2 z2 | A,,2 z2 z2 | E,2 z2 z2 | A,,2 z2 z2 | %137
 E,2 z2 z2 | _D,2 z2 z2 | C,2 z2 z2 | B,,2 z2 z2 | E,2 z2 z2 |"_rit." G,,2 G,,2 G,,2 |!mf! C,6 | %144
 G,,6 | C,6 | G,,6 | G,6 | (E,4 D,2) | C,6 | (C,2 C,2 D,2) | (E,2 C,2 E,2) | (G,4 A,2) | G,6 | %154
 F,6 | F,6 | (D,4 C,2) | =B,,6 | z2 (G,,2 =B,,2) | (D,2 =B,,2 D,2) | (F,2 G,2 A,2) | _G,6 | G,6 | %163
 C,2 z2 z2 | G,,2 z2 z2 | F,2 z2 z2 | F,2 z2 z2 | B,,2 z2 z2 | B,,2 z2 z2 | E,2 z2 z2 | %170
 .A,,2 z2 z2 | .G,,2 z2 z2 | .A,,2 z2 z2 | .G,,2 z2 z2 | .A,,2 z2 z2 | .G,,2 z2 z2 | .A,,2 z2 z2 | %177
 .G,,2 z2 z2 | .A,,2 z2 z2 | .G,,2 z2 z2 | .G,,2 z2 z2 | C,2 .[C,G,]2 .[C,G,]2 | %182
"_rit." G,,2 E,2 D,2 |!f! C,2 z2 z2 | G,,2 z2 z2 | C,2 z2 z2 | G,,2 z2 z2 | C,2 z2 z2 | %188
 G,,2 z2 z2 | D,2 z2 z2 | G,,2 z2 z2 | D,2 z2 z2 | G,,2 z2 z2 | D,2 z2 z2 | G,,2 z2 z2 | %195
 D,2 z2 z2 | G,,2 z2 z2 | C,2 z2 z2 | G,,2 z2 z2 | C,2 z2 z2 | G,,2 z2 z2 | F,2 z2 z2 | F,2 z2 z2 | %203
 B,,2 z2 z2 | B,,2 z2 z2 | E,2 z2 z2 |!p! .A,,2 .E,,2 .F,,2 | .G,,2 z2 z2 | .A,,2 z2 z2 | %209
 .G,,2 .G,,2 .G,,2 | .A,,2 .E,,2 .F,,2 | .G,,2 z2 z2 | .A,,2 z2 z2 | .G,,2 .G,,2 .G,,2 | %214
 .A,,2 .C,2 .D,2 | .C,2 z2 z2 | .G,,2 z2 z2 | C,2 z2!ff! [D,,G,,]2 | [E,,C,]2 z2 z2 |] %219

